static/images/political.svg

<?xml version="1.0" encoding="UTF-8"?>
<svg width="273px" height="146px" viewBox="0 0 273 146" version="1.1" xmlns="http://www.w3.org/2000/svg" xmlns:xlink="http://www.w3.org/1999/xlink">
    <!-- Generator: Sketch 64 (93537) - https://sketch.com -->
    <title>Politcal Orgs</title>
    <desc>Created with Sketch.</desc>
    <defs>
        <rect id="path-1" x="0" y="0" width="273" height="146" rx="8"></rect>
    </defs>
    <g id="Politcal-Orgs" stroke="none" stroke-width="1" fill="none" fill-rule="evenodd">
        <g>
            <mask id="mask-2" fill="white">
                <use xlink:href="#path-1"></use>
            </mask>
            <use id="Rectangle-3-Copy-8" fill="#C6DACC" xlink:href="#path-1"></use>
            <path d="M124.752512,85 C93.8298017,87.6767523 80.5050374,93.4960445 84.7782194,102.457877 C89.0514014,111.419709 105.284364,119.267083 133.477107,126 C176.378991,120.04531 194.41854,113.211976 187.595756,105.5 C180.772972,97.7880235 159.825224,90.9546902 124.752512,85 Z" id="Path-14-Copy" fill="#1F441D" mask="url(#mask-2)"></path>
            <polygon id="Path-17-Copy" fill="#F8F4E9" mask="url(#mask-2)" points="99 51.7135099 128.798148 112 175 88.1028966 141.196621 30"></polygon>
            <path d="M165.873584,28.0488213 C160.888248,53.0076724 157.058996,64.9074111 154.385828,63.7480373 C150.376077,62.0089766 156.595628,49.9025325 154.836702,49.3863783 C153.077775,48.8702241 149.186221,65.2587036 144.13612,64.9128875 C139.08602,64.5670714 147.78744,48.7515006 146.5445,48.0305542 C145.301559,47.3096078 134.816803,67.1529785 130.772495,64.8071471 C126.728188,62.4613156 140.922784,45.5932517 138.483398,43.35485 C136.044012,41.1164482 126.692148,61.0472146 122.617199,57.6072043 C118.54225,54.1671939 135.979194,31.8485666 135.979194,31.8485666 C134.952645,31.2531342 126.840007,35.7778222 123.899507,35.014223 C122.739611,34.7130173 122.431615,33.6841289 123.76506,31.3638027 C128.478977,23.1611208 148.694385,15.4366686 157.854566,20.7498757 C163.961354,24.2920138 166.63436,26.7249956 165.873584,28.0488213 Z" id="Path-5-Copy-29" fill="#C47A42" mask="url(#mask-2)"></path>
        </g>
    </g>
</svg>

<svg width="273" height="146" xmlns="http://www.w3.org/2000/svg" xmlns:xlink="http://www.w3.org/1999/xlink"><defs><rect id="a" x="0" y="0" width="273" height="146" rx="8"/></defs><g fill="none" fill-rule="evenodd"><mask id="b" fill="#fff"><use xlink:href="#a"/></mask><use fill="#C6DACC" xlink:href="#a"/><path d="M124.75 85c-30.92 2.68-44.24 8.5-39.97 17.46 4.27 8.96 20.5 16.8 48.7 23.54 42.9-5.95 60.94-12.79 54.12-20.5-6.83-7.71-27.77-14.55-62.85-20.5z" fill="#1F441D" mask="url(#b)"/><path fill="#F8F4E9" mask="url(#b)" d="M99 51.71L128.8 112 175 88.1 141.2 30z"/><path d="M165.87 28.05C160.9 53 157.06 64.9 154.4 63.75c-4.01-1.74 2.2-13.85.45-14.36-1.76-.52-5.65 15.87-10.7 15.52-5.05-.34 3.65-16.16 2.4-16.88-1.24-.72-11.72 19.12-15.77 16.78-4.04-2.35 10.15-19.22 7.71-21.46-2.44-2.23-11.79 17.7-15.86 14.26-4.08-3.44 13.36-25.76 13.36-25.76-1.03-.6-9.14 3.93-12.08 3.16-1.16-.3-1.47-1.33-.13-3.65 4.7-8.2 24.92-15.92 34.08-10.61 6.11 3.54 8.78 5.97 8.02 7.3z" fill="#C47A42" mask="url(#b)"/></g></svg>
